Newaita-dark/apps/22/toggldesktop.svg

<svg height="22" viewBox="0 0 22 22" width="22" xmlns="http://www.w3.org/2000/svg" xmlns:xlink="http://www.w3.org/1999/xlink"><linearGradient id="a"><stop offset="0" stop-opacity=".313726"/><stop offset=".222222" stop-opacity=".27451"/><stop offset="1" stop-opacity="0"/></linearGradient><radialGradient id="b" cx="450.908936" cy="189.579361" gradientTransform="matrix(.00000012 -.0537161 -.0966889 -.00000007 30.609667 43.721789)" gradientUnits="userSpaceOnUse" r="21.166656" xlink:href="#a"/><radialGradient id="c" cx="450.908936" cy="189.579361" gradientTransform="matrix(-.00000012 .0537161 .0966889 .00000007 -8.779457 -5.175144)" gradientUnits="userSpaceOnUse" r="21.166656" xlink:href="#a"/><radialGradient id="d" cx="450.908936" cy="189.579361" gradientTransform="matrix(-.00000012 -.0537161 .0966889 -.00000007 -8.779457 43.721789)" gradientUnits="userSpaceOnUse" r="21.166656" xlink:href="#a"/><radialGradient id="e" cx="450.908936" cy="189.579361" gradientTransform="matrix(.00000012 .0537161 -.0966889 .00000007 30.609666 -5.175144)" gradientUnits="userSpaceOnUse" r="21.166656" xlink:href="#a"/><linearGradient id="f" gradientTransform="matrix(.00918504 0 0 .0429729 8.569953 9.239164)" gradientUnits="userSpaceOnUse" x1="255.323059" x2="255.323044" y1="233.5" y2="254.666656"><stop offset="0" stop-opacity=".27451"/><stop offset="1" stop-opacity="0"/></linearGradient><linearGradient id="g" gradientUnits="userSpaceOnUse" x1="254" x2="254" y1="-168.666672" y2="233.5"><stop offset="0" stop-color="#ef5350"/><stop offset="1" stop-color="#f44336"/></linearGradient><linearGradient id="h" gradientUnits="userSpaceOnUse" x1="10.915104" x2="10.915104" y1="19.27332401286" y2="1.99107548985"><stop offset="0" stop-color="#bdbdbd"/><stop offset="1" stop-color="#e0e0e0"/></linearGradient><path d="m12.507812 19.273438h1.816407v-.910157h-1.816407zm0 0" fill="url(#b)"/><path d="m9.324219 19.273438h-1.820313v.910156h1.820313zm0 0" fill="url(#c)"/><path d="m9.324219 19.273438h-1.820313v-.910157h1.820313zm0 0" fill="url(#d)"/><path d="m12.507812 19.273438h1.816407v.910156h-1.816407zm0 0" fill="url(#e)"/><path d="m9.324219 19.046875h3.183593v1.136719h-3.183593zm0 0" fill="url(#f)"/><path d="m253.975747-168.640791c111.080301 0 201.071707 89.991407 201.071707 201.071708s-89.991406 201.071708-201.071707 201.071708c-110.989402 0-201.071708-89.991407-201.071708-201.071708s90.082306-201.071708 201.071708-201.071708zm0 0" fill="url(#g)" stroke="#333" stroke-linecap="round" stroke-width="3" transform="matrix(.0429729 0 0 .0429729 0 9.239163)"/><path d="m10.914062 19.273438c-4.785156 0-8.640624-3.855469-8.640624-8.640626 0-.027343 0-.058593 0-.085937.046874 4.75 3.882812 8.558594 8.640624 8.558594 4.761719 0 8.597657-3.808594 8.640626-8.558594v.085937c0 4.785157-3.851563 8.640626-8.640626 8.640626zm0 0" fill-opacity=".196078"/><path d="m10.914062 1.992188c-4.785156 0-8.640624 3.851562-8.640624 8.640624v.085938c.046874-4.75 3.882812-8.558594 8.640624-8.558594 4.761719 0 8.597657 3.808594 8.640626 8.558594 0-.03125 0-.058594 0-.085938 0-4.789062-3.851563-8.640624-8.640626-8.640624zm0 0" fill="#fff" fill-opacity=".392157"/><path d="m10.914062 1.925781c-4.820312 0-8.703124 3.882813-8.703124 8.707031 0 4.820313 3.882812 8.703126 8.703124 8.703126 4.824219 0 8.707032-3.882813 8.707032-8.703126 0-4.824218-3.882813-8.707031-8.707032-8.707031zm0 .128907c4.753907 0 8.578126 3.824218 8.578126 8.578124 0 4.75-3.824219 8.574219-8.578126 8.574219-4.75 0-8.574218-3.824219-8.574218-8.574219 0-4.753906 3.824218-8.578124 8.574218-8.578124zm0 0" fill="#212121"/><path d="m10.914062 5.628906c-.25 0-.453124.203125-.453124.457032v4.546874c0 .25.203124.453126.453124.453126.253907 0 .457032-.203126.457032-.453126v-4.546874c0-.253907-.203125-.457032-.457032-.457032zm-.910156 1.011719c-1.824218.410156-3.183594 2.035156-3.183594 3.992187 0 2.265626 1.828126 4.09375 4.09375 4.09375 2.269532 0 4.09375-1.828124 4.09375-4.09375 0-1.957031-1.355468-3.582031-3.183593-3.992187v.9375c1.316406.390625 2.273437 1.605469 2.273437 3.054687 0 1.761719-1.417968 3.183594-3.183594 3.183594-1.761718 0-3.183593-1.421875-3.183593-3.183594 0-1.449218.957031-2.664062 2.273437-3.054687zm0 0" fill="url(#h)"/><path d="m10.914062 5.628906c-.25 0-.453124.203125-.453124.457032v.226562c0-.253906.203124-.457031.453124-.457031.253907 0 .457032.203125.457032.457031v-.226562c0-.253907-.203125-.457032-.457032-.457032zm-.910156 1.011719c-1.824218.410156-3.183594 2.035156-3.183594 3.992187 0 .039063.003907.078126.003907.117188.050781-1.90625 1.390625-3.480469 3.179687-3.882812zm1.820313 0v.226563c1.792969.402343 3.132812 1.976562 3.183593 3.882812 0-.039062 0-.078125 0-.117188 0-1.957031-1.355468-3.582031-3.183593-3.992187zm-4.089844 4.105469c-.003906.035156-.003906.074218-.003906.113281 0 1.765625 1.421875 3.183594 3.183593 3.183594 1.765626 0 3.183594-1.417969 3.183594-3.183594 0-.039063 0-.078125 0-.113281-.058594 1.710937-1.457031 3.070312-3.183594 3.070312-1.726562 0-3.121093-1.359375-3.179687-3.070312zm0 0" fill="#fff"/><path d="m10.003906 7.628906c-1.25.371094-2.171875 1.484375-2.265625 2.832032 0-.019532 0-.035157-.003906-.050782 0 .054688-.003906.113282-.003906.167969 0 .078125.003906.148437.007812.222656.09375-1.347656 1.015625-2.460937 2.265625-2.832031zm1.820313 0v.339844c1.25.371094 2.175781 1.484375 2.265625 2.832031.007812-.074219.007812-.144531.007812-.222656 0-.054687 0-.113281-.003906-.167969 0 .015625 0 .03125-.003906.050782-.089844-1.347657-1.015625-2.460938-2.265625-2.832032zm-1.363281 3.054688v.339844c0 .25.203124.453124.453124.453124.253907 0 .457032-.203124.457032-.453124v-.339844c0 .25-.203125.453125-.457032.453125-.25 0-.453124-.203125-.453124-.453125zm-3.636719.171875c0 .054687-.003907.109375-.003907.167969 0 2.265624 1.828126 4.09375 4.09375 4.09375 2.269532 0 4.09375-1.828126 4.09375-4.09375 0-.058594 0-.113282-.003906-.167969-.089844 2.1875-1.878906 3.917969-4.089844 3.917969-2.207031 0-4-1.730469-4.089843-3.917969zm0 0" fill-opacity=".235294"/><path d="m959.908384 495.070859c-21.98788 0-39.853033 17.865153-39.853033 40.196593v399.904567c0 21.98788 17.865153 39.853032 39.853033 39.853032 22.33144 0 40.196593-17.865152 40.196593-39.853032v-399.904567c0-22.33144-17.865153-40.196593-40.196593-40.196593zm-80.049626 88.982202c-160.442811 36.073866-280.001908 178.995085-280.001908 351.118958 0 199.265162 160.786372 360.051534 360.051534 360.051534 199.608722 0 360.051534-160.786372 360.051534-360.051534 0-172.123873-119.215537-315.045092-280.001909-351.118958v82.45455c115.779931 34.356062 199.952283 141.203416 199.952283 268.664408 0 154.945841-124.712506 280.001909-280.001908 280.001909-154.945842 0-280.001909-125.056068-280.001909-280.001909 0-127.460992 84.172353-234.308346 199.952283-268.664408zm0 0" fill="none" stroke="#212121" stroke-linecap="round" stroke-linejoin="round" stroke-width="11.338583" transform="scale(.0113699)"/></svg>

<?xml version="1.0" encoding="UTF-8"?>
<svg xmlns="http://www.w3.org/2000/svg" xmlns:xlink="http://www.w3.org/1999/xlink" width="22px" height="22px" viewBox="0 0 22 22" version="1.1">
<defs>
<radialGradient id="radial0" gradientUnits="userSpaceOnUse" cx="450.908936" cy="189.579361" fx="450.908936" fy="189.579361" r="21.166656" gradientTransform="matrix(0.000000119742,-0.0537161,-0.0966889,-0.0000000698078,30.609667,43.721789)">
<stop offset="0" style="stop-color:rgb(0%,0%,0%);stop-opacity:0.313726;"/>
<stop offset="0.222222" style="stop-color:rgb(0%,0%,0%);stop-opacity:0.27451;"/>
<stop offset="1" style="stop-color:rgb(0%,0%,0%);stop-opacity:0;"/>
</radialGradient>
<radialGradient id="radial1" gradientUnits="userSpaceOnUse" cx="450.908936" cy="189.579361" fx="450.908936" fy="189.579361" r="21.166656" gradientTransform="matrix(-0.000000119742,0.0537161,0.0966889,0.0000000698078,-8.779457,-5.175144)">
<stop offset="0" style="stop-color:rgb(0%,0%,0%);stop-opacity:0.313726;"/>
<stop offset="0.222222" style="stop-color:rgb(0%,0%,0%);stop-opacity:0.27451;"/>
<stop offset="1" style="stop-color:rgb(0%,0%,0%);stop-opacity:0;"/>
</radialGradient>
<radialGradient id="radial2" gradientUnits="userSpaceOnUse" cx="450.908936" cy="189.579361" fx="450.908936" fy="189.579361" r="21.166656" gradientTransform="matrix(-0.000000119742,-0.0537161,0.0966889,-0.0000000698078,-8.779457,43.721789)">
<stop offset="0" style="stop-color:rgb(0%,0%,0%);stop-opacity:0.313726;"/>
<stop offset="0.222222" style="stop-color:rgb(0%,0%,0%);stop-opacity:0.27451;"/>
<stop offset="1" style="stop-color:rgb(0%,0%,0%);stop-opacity:0;"/>
</radialGradient>
<radialGradient id="radial3" gradientUnits="userSpaceOnUse" cx="450.908936" cy="189.579361" fx="450.908936" fy="189.579361" r="21.166656" gradientTransform="matrix(0.000000119742,0.0537161,-0.0966889,0.0000000698078,30.609666,-5.175144)">
<stop offset="0" style="stop-color:rgb(0%,0%,0%);stop-opacity:0.313726;"/>
<stop offset="0.222222" style="stop-color:rgb(0%,0%,0%);stop-opacity:0.27451;"/>
<stop offset="1" style="stop-color:rgb(0%,0%,0%);stop-opacity:0;"/>
</radialGradient>
<linearGradient id="linear0" gradientUnits="userSpaceOnUse" x1="255.323059" y1="233.5" x2="255.323044" y2="254.666656" gradientTransform="matrix(0.00918504,0,0,0.0429729,8.569953,9.239164)">
<stop offset="0" style="stop-color:rgb(0%,0%,0%);stop-opacity:0.27451;"/>
<stop offset="1" style="stop-color:rgb(0%,0%,0%);stop-opacity:0;"/>
</linearGradient>
<linearGradient id="linear1" gradientUnits="userSpaceOnUse" x1="254" y1="-168.666672" x2="254" y2="233.5" >
<stop offset="0" style="stop-color:rgb(93.725491%,32.549021%,31.37255%);stop-opacity:1;"/>
<stop offset="1" style="stop-color:rgb(95.686275%,26.274511%,21.176471%);stop-opacity:1;"/>
</linearGradient>
<linearGradient id="linear2" gradientUnits="userSpaceOnUse" x1="960" y1="1695.118164" x2="960" y2="175.118118" gradientTransform="matrix(0.0113699,0,0,0.0113699,0,0)">
<stop offset="0" style="stop-color:rgb(74.117649%,74.117649%,74.117649%);stop-opacity:1;"/>
<stop offset="1" style="stop-color:rgb(87.843138%,87.843138%,87.843138%);stop-opacity:1;"/>
</linearGradient>
</defs>
<g id="surface1">
<path style=" stroke:none;fill-rule:nonzero;fill:url(#radial0);" d="M 12.507812 19.273438 L 14.324219 19.273438 L 14.324219 18.363281 L 12.507812 18.363281 Z M 12.507812 19.273438 "/>
<path style=" stroke:none;fill-rule:nonzero;fill:url(#radial1);" d="M 9.324219 19.273438 L 7.503906 19.273438 L 7.503906 20.183594 L 9.324219 20.183594 Z M 9.324219 19.273438 "/>
<path style=" stroke:none;fill-rule:nonzero;fill:url(#radial2);" d="M 9.324219 19.273438 L 7.503906 19.273438 L 7.503906 18.363281 L 9.324219 18.363281 Z M 9.324219 19.273438 "/>
<path style=" stroke:none;fill-rule:nonzero;fill:url(#radial3);" d="M 12.507812 19.273438 L 14.324219 19.273438 L 14.324219 20.183594 L 12.507812 20.183594 Z M 12.507812 19.273438 "/>
<path style=" stroke:none;fill-rule:nonzero;fill:url(#linear0);" d="M 9.324219 19.046875 L 12.507812 19.046875 L 12.507812 20.183594 L 9.324219 20.183594 Z M 9.324219 19.046875 "/>
<path style="fill-rule:nonzero;fill:url(#linear1);stroke-width:3;stroke-linecap:round;stroke-linejoin:miter;stroke:rgb(20%,20%,20%);stroke-opacity:1;stroke-miterlimit:4;" d="M 253.975747 -168.640791 C 365.056048 -168.640791 455.047454 -78.649384 455.047454 32.430917 C 455.047454 143.511218 365.056048 233.502625 253.975747 233.502625 C 142.986345 233.502625 52.904039 143.511218 52.904039 32.430917 C 52.904039 -78.649384 142.986345 -168.640791 253.975747 -168.640791 Z M 253.975747 -168.640791 " transform="matrix(0.0429729,0,0,0.0429729,0,9.239163)"/>
<path style=" stroke:none;fill-rule:nonzero;fill:rgb(0%,0%,0%);fill-opacity:0.196078;" d="M 10.914062 19.273438 C 6.128906 19.273438 2.273438 15.417969 2.273438 10.632812 C 2.273438 10.605469 2.273438 10.574219 2.273438 10.546875 C 2.320312 15.296875 6.15625 19.105469 10.914062 19.105469 C 15.675781 19.105469 19.511719 15.296875 19.554688 10.546875 C 19.554688 10.574219 19.554688 10.605469 19.554688 10.632812 C 19.554688 15.417969 15.703125 19.273438 10.914062 19.273438 Z M 10.914062 19.273438 "/>
<path style=" stroke:none;fill-rule:nonzero;fill:rgb(100%,100%,100%);fill-opacity:0.392157;" d="M 10.914062 1.992188 C 6.128906 1.992188 2.273438 5.84375 2.273438 10.632812 C 2.273438 10.660156 2.273438 10.6875 2.273438 10.71875 C 2.320312 5.96875 6.15625 2.160156 10.914062 2.160156 C 15.675781 2.160156 19.511719 5.96875 19.554688 10.71875 C 19.554688 10.6875 19.554688 10.660156 19.554688 10.632812 C 19.554688 5.84375 15.703125 1.992188 10.914062 1.992188 Z M 10.914062 1.992188 "/>
<path style=" stroke:none;fill-rule:nonzero;fill:rgb(12.941177%,12.941177%,12.941177%);fill-opacity:1;" d="M 10.914062 1.925781 C 6.09375 1.925781 2.210938 5.808594 2.210938 10.632812 C 2.210938 15.453125 6.09375 19.335938 10.914062 19.335938 C 15.738281 19.335938 19.621094 15.453125 19.621094 10.632812 C 19.621094 5.808594 15.738281 1.925781 10.914062 1.925781 Z M 10.914062 2.054688 C 15.667969 2.054688 19.492188 5.878906 19.492188 10.632812 C 19.492188 15.382812 15.667969 19.207031 10.914062 19.207031 C 6.164062 19.207031 2.339844 15.382812 2.339844 10.632812 C 2.339844 5.878906 6.164062 2.054688 10.914062 2.054688 Z M 10.914062 2.054688 "/>
<path style=" stroke:none;fill-rule:nonzero;fill:url(#linear2);" d="M 10.914062 5.628906 C 10.664062 5.628906 10.460938 5.832031 10.460938 6.085938 L 10.460938 10.632812 C 10.460938 10.882812 10.664062 11.085938 10.914062 11.085938 C 11.167969 11.085938 11.371094 10.882812 11.371094 10.632812 L 11.371094 6.085938 C 11.371094 5.832031 11.167969 5.628906 10.914062 5.628906 Z M 10.003906 6.640625 C 8.179688 7.050781 6.820312 8.675781 6.820312 10.632812 C 6.820312 12.898438 8.648438 14.726562 10.914062 14.726562 C 13.183594 14.726562 15.007812 12.898438 15.007812 10.632812 C 15.007812 8.675781 13.652344 7.050781 11.824219 6.640625 L 11.824219 7.578125 C 13.140625 7.96875 14.097656 9.183594 14.097656 10.632812 C 14.097656 12.394531 12.679688 13.816406 10.914062 13.816406 C 9.152344 13.816406 7.730469 12.394531 7.730469 10.632812 C 7.730469 9.183594 8.6875 7.96875 10.003906 7.578125 Z M 10.003906 6.640625 "/>
<path style=" stroke:none;fill-rule:nonzero;fill:rgb(100%,100%,100%);fill-opacity:1;" d="M 10.914062 5.628906 C 10.664062 5.628906 10.460938 5.832031 10.460938 6.085938 L 10.460938 6.3125 C 10.460938 6.058594 10.664062 5.855469 10.914062 5.855469 C 11.167969 5.855469 11.371094 6.058594 11.371094 6.3125 L 11.371094 6.085938 C 11.371094 5.832031 11.167969 5.628906 10.914062 5.628906 Z M 10.003906 6.640625 C 8.179688 7.050781 6.820312 8.675781 6.820312 10.632812 C 6.820312 10.671875 6.824219 10.710938 6.824219 10.75 C 6.875 8.84375 8.214844 7.269531 10.003906 6.867188 Z M 11.824219 6.640625 L 11.824219 6.867188 C 13.617188 7.269531 14.957031 8.84375 15.007812 10.75 C 15.007812 10.710938 15.007812 10.671875 15.007812 10.632812 C 15.007812 8.675781 13.652344 7.050781 11.824219 6.640625 Z M 7.734375 10.746094 C 7.730469 10.78125 7.730469 10.820312 7.730469 10.859375 C 7.730469 12.625 9.152344 14.042969 10.914062 14.042969 C 12.679688 14.042969 14.097656 12.625 14.097656 10.859375 C 14.097656 10.820312 14.097656 10.78125 14.097656 10.746094 C 14.039062 12.457031 12.640625 13.816406 10.914062 13.816406 C 9.1875 13.816406 7.792969 12.457031 7.734375 10.746094 Z M 7.734375 10.746094 "/>
<path style=" stroke:none;fill-rule:nonzero;fill:rgb(0%,0%,0%);fill-opacity:0.235294;" d="M 10.003906 7.628906 C 8.753906 8 7.832031 9.113281 7.738281 10.460938 C 7.738281 10.441406 7.738281 10.425781 7.734375 10.410156 C 7.734375 10.464844 7.730469 10.523438 7.730469 10.578125 C 7.730469 10.65625 7.734375 10.726562 7.738281 10.800781 C 7.832031 9.453125 8.753906 8.339844 10.003906 7.96875 Z M 11.824219 7.628906 L 11.824219 7.96875 C 13.074219 8.339844 14 9.453125 14.089844 10.800781 C 14.097656 10.726562 14.097656 10.65625 14.097656 10.578125 C 14.097656 10.523438 14.097656 10.464844 14.09375 10.410156 C 14.09375 10.425781 14.09375 10.441406 14.089844 10.460938 C 14 9.113281 13.074219 8 11.824219 7.628906 Z M 10.460938 10.683594 L 10.460938 11.023438 C 10.460938 11.273438 10.664062 11.476562 10.914062 11.476562 C 11.167969 11.476562 11.371094 11.273438 11.371094 11.023438 L 11.371094 10.683594 C 11.371094 10.933594 11.167969 11.136719 10.914062 11.136719 C 10.664062 11.136719 10.460938 10.933594 10.460938 10.683594 Z M 6.824219 10.855469 C 6.824219 10.910156 6.820312 10.964844 6.820312 11.023438 C 6.820312 13.289062 8.648438 15.117188 10.914062 15.117188 C 13.183594 15.117188 15.007812 13.289062 15.007812 11.023438 C 15.007812 10.964844 15.007812 10.910156 15.003906 10.855469 C 14.914062 13.042969 13.125 14.773438 10.914062 14.773438 C 8.707031 14.773438 6.914062 13.042969 6.824219 10.855469 Z M 6.824219 10.855469 "/>
<path style="fill:none;stroke-width:11.338583;stroke-linecap:round;stroke-linejoin:round;stroke:rgb(12.941177%,12.941177%,12.941177%);stroke-opacity:1;stroke-miterlimit:4;" d="M 959.908384 495.070859 C 937.920504 495.070859 920.055351 512.936012 920.055351 535.267452 L 920.055351 935.172019 C 920.055351 957.159899 937.920504 975.025051 959.908384 975.025051 C 982.239824 975.025051 1000.104977 957.159899 1000.104977 935.172019 L 1000.104977 535.267452 C 1000.104977 512.936012 982.239824 495.070859 959.908384 495.070859 Z M 879.858758 584.053061 C 719.415947 620.126927 599.85685 763.048146 599.85685 935.172019 C 599.85685 1134.437181 760.643222 1295.223553 959.908384 1295.223553 C 1159.517106 1295.223553 1319.959918 1134.437181 1319.959918 935.172019 C 1319.959918 763.048146 1200.744381 620.126927 1039.958009 584.053061 L 1039.958009 666.507611 C 1155.73794 700.863673 1239.910292 807.711027 1239.910292 935.172019 C 1239.910292 1090.11786 1115.197786 1215.173928 959.908384 1215.173928 C 804.962542 1215.173928 679.906475 1090.11786 679.906475 935.172019 C 679.906475 807.711027 764.078828 700.863673 879.858758 666.507611 Z M 879.858758 584.053061 " transform="matrix(0.0113699,0,0,0.0113699,0,0)"/>
</g>
</svg>
